X: 72
T: The Centenary March
B: begged borrowed and stolen
M:2/4
L:1/8
R: March
Q: 1/4=100
K:D
V:1 
DF|:"D"A2 A>B|AF ED|f2 f2|ed Bd|A2 A>B|AF ED|"A"E2 E>F|E2 DF|
"D"A2 A>B|AF ED|f2 f2|ed Bd|A2 d>e|"G"fe dc|"D"d2 d>e|1d2DF :|2d2 Ad||
|: "D"f>e fa|Ad fa|"G"g2 f2|"D"e2 f>g|af dA|FA GF|"A"E2 E>F|E2 FG|
"D"AD FA|dF Ad|fa gf|"G"ed cB|"D"Ad fa|"A"ge cA|"D"d2 dd|d2:|
% abcbook-tune_id 627e2b1fb0dcc80785ed270d


% abcbook-boost 0
% abcbook-tablature 
% abcbook-transpose 
% abcbook-lastupdated 1652725431104
% abcbook-soundfonts 
% abcbook-repeats 3
% Rhythm March
% Titles One title
% Transcriptions Only 1 transcription
% Movement Has lots of stepwise movement
% Movement Has some stepwise movement
% Mode major
% Key D
% Time_signature 2/4
% Has_accompaniment_chords No chords

